www/assets/icons/mark_email_unread.svg

<svg xmlns="http://www.w3.org/2000/svg" width="24" height="24" viewBox="0 0 24 24" fill='currentColor'><path d="M22 9.98V19c0 1.1-.9 2-2 2H4c-1.1 0-2-.9-2-2V7c0-1.1.9-2 2-2h10.1c-.06.32-.1.66-.1 1 0 1.48.65 2.79 1.67 3.71L12 12 4 7v2l8 5 5.3-3.32c.54.2 1.1.32 1.7.32 1.13 0 2.16-.39 3-1.02M16 6c0 1.66 1.34 3 3 3s3-1.34 3-3-1.34-3-3-3-3 1.34-3 3"/></svg>

<svg width="24" height="24" viewBox="0 0 24 24" xmlns="http://www.w3.org/2000/svg" fill='currentColor'><path d="M22 9.98V19C22 20.1 21.1 21 20 21H4C2.9 21 2 20.1 2 19V7C2 5.9 2.9 5 4 5H14.1C14.04 5.32 14 5.66 14 6C14 7.48 14.65 8.79 15.67 9.71L12 12L4 7V9L12 14L17.3 10.68C17.84 10.88 18.4 11 19 11C20.13 11 21.16 10.61 22 9.98ZM16 6C16 7.66 17.34 9 19 9C20.66 9 22 7.66 22 6C22 4.34 20.66 3 19 3C17.34 3 16 4.34 16 6Z"/></svg>
